dist/assets/img/corporulian-code/get-artifact/message_1.svg

<svg width="410" height="227" viewBox="0 0 410 227" fill="none" xmlns="http://www.w3.org/2000/svg">
<g filter="url(#filter0_d_1_7)">
<path d="M154.102 48.6396C192.442 49.9594 300.153 14.9818 334.76 33.3392C373.595 53.9398 385.846 126.492 343.082 153.938C277.679 195.913 179.228 162.018 144.101 162.974C105.755 164.017 71.328 172.755 52.5656 139.806C24.0302 89.6949 50.0698 58.5524 71.6485 48.6401C94.5138 38.1367 115.698 47.3177 154.102 48.6396Z" fill="white"/>
</g>
<path d="M342.838 135.868C345.841 145.118 356.982 153.354 363.641 158.404C364.385 158.968 364.002 160.061 363.075 159.95C352.097 158.629 340.548 148.145 336.771 143.122C336.532 142.804 336.523 142.374 336.732 142.035L340.753 135.532C341.245 134.736 342.549 134.978 342.838 135.868Z" fill="white"/>
<defs>
<filter id="filter0_d_1_7" x="0" y="0" width="410" height="227" filterUnits="userSpaceOnUse" color-interpolation-filters="sRGB">
<feFlood flood-opacity="0" result="BackgroundImageFix"/>
<feColorMatrix in="SourceAlpha" type="matrix" values="0 0 0 0 0 0 0 0 0 0 0 0 0 0 0 0 0 0 127 0" result="hardAlpha"/>
<feOffset dy="12"/>
<feGaussianBlur stdDeviation="20"/>
<feComposite in2="hardAlpha" operator="out"/>
<feColorMatrix type="matrix" values="0 0 0 0 0.909804 0 0 0 0 0.313726 0 0 0 0 0.470588 0 0 0 1 0"/>
<feBlend mode="normal" in2="BackgroundImageFix" result="effect1_dropShadow_1_7"/>
<feBlend mode="normal" in="SourceGraphic" in2="effect1_dropShadow_1_7" result="shape"/>
</filter>
</defs>
</svg>

<svg width="410" height="227" viewBox="0 0 410 227" fill="none" xmlns="http://www.w3.org/2000/svg"><g filter="url(#filter0_d_1_7)"><path d="M154.102 48.64c38.34 1.32 146.051-33.658 180.658-15.3 38.835 20.6 51.086 93.152 8.322 120.598-65.403 41.975-163.854 8.08-198.981 9.036-38.346 1.043-72.773 9.781-91.535-23.168C24.03 89.695 50.07 58.552 71.648 48.64c22.866-10.503 44.05-1.322 82.454 0z" fill="#fff"/></g><path d="M342.838 135.868c3.003 9.25 14.144 17.486 20.803 22.536.744.564.361 1.657-.566 1.546-10.978-1.321-22.527-11.805-26.304-16.828a.963.963 0 01-.039-1.087l4.021-6.503c.492-.796 1.796-.554 2.085.336z" fill="#fff"/><defs><filter id="filter0_d_1_7" x="0" y="0" width="410" height="227" filterUnits="userSpaceOnUse" color-interpolation-filters="sRGB"><feFlood flood-opacity="0" result="BackgroundImageFix"/><feColorMatrix in="SourceAlpha" values="0 0 0 0 0 0 0 0 0 0 0 0 0 0 0 0 0 0 127 0" result="hardAlpha"/><feOffset dy="12"/><feGaussianBlur stdDeviation="20"/><feComposite in2="hardAlpha" operator="out"/><feColorMatrix values="0 0 0 0 0.909804 0 0 0 0 0.313726 0 0 0 0 0.470588 0 0 0 1 0"/><feBlend in2="BackgroundImageFix" result="effect1_dropShadow_1_7"/><feBlend in="SourceGraphic" in2="effect1_dropShadow_1_7" result="shape"/></filter></defs></svg>
